assets/Beetle/Flat/beetle_flat.svg

<svg width="32" height="32" viewBox="0 0 32 32" fill="none" xmlns="http://www.w3.org/2000/svg">
<path d="M18.722 3.75926L17.372 6.01926C18.912 6.57926 20.012 8.04926 20.012 9.77926V10.0393H12.022V9.76926C12.022 8.05926 13.102 6.59926 14.622 6.02926L13.302 3.74926C13.162 3.50926 13.242 3.20926 13.482 3.06926C13.722 2.92926 14.022 3.00926 14.162 3.24926L15.632 5.79926L15.658 5.79726C15.7781 5.78797 15.8907 5.77926 16.012 5.77926C16.122 5.77926 16.232 5.77926 16.342 5.78926L17.862 3.23926C18.012 3.00926 18.312 2.92926 18.552 3.06926C18.782 3.21926 18.862 3.51926 18.722 3.75926Z" fill="#14A085"/>
<path d="M10.422 14.4692C10.642 14.4692 10.852 14.3792 11.002 14.1992C11.262 13.8792 11.222 13.4092 10.902 13.1492L8.29195 10.9992C7.80195 10.5992 7.52195 10.0092 7.52195 9.37919V7.17919C7.52195 6.68919 7.33195 6.21919 6.98195 5.86919L6.31195 5.19919C6.02195 4.90919 5.54195 4.90919 5.25195 5.19919C4.96195 5.48919 4.96195 5.96919 5.25195 6.25919L5.93195 6.93919C6.00195 7.00919 6.03195 7.08919 6.03195 7.18919V9.38919C6.03195 10.4692 6.51195 11.4792 7.34195 12.1592L9.95195 14.2992C10.082 14.4092 10.252 14.4692 10.422 14.4692Z" fill="#14A085"/>
<path d="M21.622 14.4692C21.402 14.4692 21.192 14.3792 21.042 14.1992C20.782 13.8792 20.822 13.4092 21.142 13.1492L23.752 11.0092C24.232 10.6092 24.512 10.0192 24.512 9.3992V7.1992C24.512 6.7092 24.702 6.2392 25.052 5.8892L25.732 5.2092C26.022 4.9192 26.502 4.9192 26.792 5.2092C27.082 5.4992 27.082 5.9792 26.792 6.2692L26.112 6.9492C26.042 7.0192 26.012 7.0992 26.012 7.1992V9.3992C26.012 10.4792 25.532 11.4892 24.702 12.1692L22.092 14.3092C21.952 14.4092 21.782 14.4692 21.622 14.4692Z" fill="#14A085"/>
<path d="M4.78195 29.9692C4.37195 29.9692 4.03195 29.6292 4.03195 29.2192V26.1692C4.03195 25.3592 4.34195 24.5992 4.91195 24.0292L7.24195 21.6992C7.53195 21.4092 8.01195 21.4092 8.30195 21.6992C8.59195 21.9892 8.59195 22.4692 8.30195 22.7592L5.97195 25.0892C5.68195 25.3792 5.52195 25.7592 5.52195 26.1692V29.2192C5.53195 29.6392 5.19195 29.9692 4.78195 29.9692Z" fill="#14A085"/>
<path d="M28.002 29.2192C28.002 29.6292 27.662 29.9692 27.252 29.9692C26.842 29.9692 26.502 29.6392 26.512 29.2192V26.1692C26.512 25.7592 26.352 25.3792 26.062 25.0892L23.732 22.7592C23.442 22.4692 23.442 21.9892 23.732 21.6992C24.022 21.4092 24.502 21.4092 24.792 21.6992L27.122 24.0292C27.692 24.5992 28.002 25.3592 28.002 26.1692V29.2192Z" fill="#14A085"/>
<path d="M29.252 17.4092C29.032 17.4092 28.812 17.3092 28.662 17.1192L27.752 15.9392C27.512 15.6292 27.152 15.4592 26.762 15.4592H23.112C22.702 15.4592 22.362 15.1192 22.362 14.7092C22.362 14.2992 22.702 13.9592 23.112 13.9592H26.762C27.612 13.9592 28.412 14.3492 28.932 15.0192L29.842 16.1992C30.092 16.5292 30.032 16.9992 29.712 17.2492C29.572 17.3592 29.412 17.4092 29.252 17.4092Z" fill="#14A085"/>
<path d="M2.29196 17.2492C2.43196 17.3592 2.59196 17.4092 2.75196 17.4092C2.97196 17.4092 3.19196 17.3092 3.34196 17.1192L4.25196 15.9392C4.49196 15.6392 4.85196 15.4592 5.24196 15.4592H8.89196C9.30196 15.4592 9.64196 15.1192 9.64196 14.7092C9.64196 14.2992 9.30196 13.9592 8.89196 13.9592H5.24196C4.38196 13.9592 3.59196 14.3392 3.07196 15.0192L2.16196 16.1992C1.90196 16.5292 1.96196 16.9992 2.29196 17.2492Z" fill="#14A085"/>
<path d="M22.012 10.9692L16 10L10.022 10.9692V12.5H13.022V15.0892H14V28.9492H18V15.0892H20.052V12.5H22.012V10.9692Z" fill="#533566"/>
<path d="M10.022 11H22L22.002 9.99931C22.002 8.77931 21.012 7.78931 19.792 7.78931H12.232C11.012 7.78931 10.022 8.77931 10.022 9.99931V11Z" fill="#00D26A"/>
<path d="M13.772 11.9893H10.662C7.55197 11.9893 5.02197 14.5093 5.02197 17.6193V19.9693C5.02197 25.1393 8.94197 29.4393 13.972 29.9593C14.532 30.0193 15.012 29.5893 15.012 29.0293V13.2293C15.022 12.5493 14.462 11.9893 13.772 11.9893Z" fill="#00D26A"/>
<path d="M21.372 11.9893H18.262C17.572 11.9893 17.012 12.5493 17.022 13.2293V29.0293C17.022 29.5893 17.502 30.0193 18.062 29.9593C23.092 29.4393 27.012 25.1393 27.012 19.9693V17.6193C27.012 14.5093 24.482 11.9893 21.372 11.9893Z" fill="#00D26A"/>
<path d="M21 15.4492C21 14.8992 20.55 14.4492 20 14.4492C19.45 14.4492 19 14.8992 19 15.4492V18.4692C19 19.0192 19.45 19.4692 20 19.4692C20.55 19.4692 21 19.0192 21 18.4692V15.4492Z" fill="#F9C23C"/>
<path d="M25 16.9592C25 16.4092 24.55 15.9592 24 15.9592C23.45 15.9592 23.01 16.4092 23 16.9592V19.9792C23 20.5292 23.45 20.9792 24 20.9792C24.55 20.9792 25 20.5292 25 19.9792V16.9592Z" fill="#F9C23C"/>
<path d="M7.98196 15.9592C8.53196 15.9592 8.98196 16.4092 8.98196 16.9592V19.9792C8.98196 20.5292 8.53196 20.9792 7.98196 20.9792C7.43196 20.9792 6.98196 20.5292 6.98196 19.9792V16.9592C6.98196 16.4092 7.43196 15.9592 7.98196 15.9592Z" fill="#F9C23C"/>
<path d="M13.062 15.4492C13.062 14.8992 12.612 14.4492 12.062 14.4492C11.512 14.4492 11.062 14.8992 11.062 15.4492V18.4692C11.062 19.0192 11.512 19.4692 12.062 19.4692C12.612 19.4692 13.062 19.0192 13.062 18.4692V15.4492Z" fill="#F9C23C"/>
</svg>

<svg xmlns="http://www.w3.org/2000/svg" width="32" height="32" fill="none"><path fill="#14A085" d="m18.722 3.76-1.35 2.26c1.54.56 2.64 2.03 2.64 3.76v.26h-7.99v-.27c0-1.71 1.08-3.17 2.6-3.74l-1.32-2.28a.493.493 0 0 1 .18-.68c.24-.14.54-.06.68.18l1.47 2.55.026-.003c.12-.009.233-.018.354-.018.11 0 .22 0 .33.01l1.52-2.55c.15-.23.45-.31.69-.17.23.15.31.45.17.69ZM10.422 14.47a.744.744 0 0 0 .48-1.32L8.292 11c-.49-.4-.77-.99-.77-1.62v-2.2c0-.49-.19-.96-.54-1.31l-.67-.67a.754.754 0 0 0-1.06 0c-.29.29-.29.77 0 1.06l.68.68c.07.07.1.15.1.25v2.2c0 1.08.48 2.09 1.31 2.77l2.61 2.14c.13.11.3.17.47.17ZM21.622 14.47a.744.744 0 0 1-.48-1.32l2.61-2.14c.48-.4.76-.99.76-1.61V7.2c0-.49.19-.96.54-1.31l.68-.68c.29-.29.77-.29 1.06 0 .29.29.29.77 0 1.06l-.68.68c-.07.07-.1.15-.1.25v2.2c0 1.08-.48 2.09-1.31 2.77l-2.61 2.14c-.14.1-.31.16-.47.16ZM4.782 29.97c-.41 0-.75-.34-.75-.75v-3.05c0-.81.31-1.57.88-2.14l2.33-2.33c.29-.29.77-.29 1.06 0 .29.29.29.77 0 1.06l-2.33 2.33c-.29.29-.45.67-.45 1.08v3.05c.01.42-.33.75-.74.75ZM28.002 29.22c0 .41-.34.75-.75.75s-.75-.33-.74-.75v-3.05c0-.41-.16-.79-.45-1.08l-2.33-2.33a.754.754 0 0 1 0-1.06c.29-.29.77-.29 1.06 0l2.33 2.33c.57.57.88 1.33.88 2.14v3.05ZM29.252 17.41c-.22 0-.44-.1-.59-.29l-.91-1.18c-.24-.31-.6-.48-.99-.48h-3.65c-.41 0-.75-.34-.75-.75s.34-.75.75-.75h3.65c.85 0 1.65.39 2.17 1.06l.91 1.18c.25.33.19.8-.13 1.05-.14.11-.3.16-.46.16ZM2.292 17.25c.14.11.3.16.46.16.22 0 .44-.1.59-.29l.91-1.18c.24-.3.6-.48.99-.48h3.65c.41 0 .75-.34.75-.75s-.34-.75-.75-.75h-3.65a2.7 2.7 0 0 0-2.17 1.06l-.91 1.18c-.26.33-.2.8.13 1.05Z"/><path fill="#533566" d="M22.012 10.97 16 10l-5.978.97v1.53h3v2.59H14v13.86h4V15.09h2.052V12.5h1.96v-1.53Z"/><path fill="#00D26A" d="M10.022 11H22l.002-1c0-1.22-.99-2.21-2.21-2.21h-7.56c-1.22 0-2.21.99-2.21 2.21v1ZM13.772 11.99h-3.11c-3.11 0-5.64 2.52-5.64 5.63v2.35c0 5.17 3.92 9.47 8.95 9.99a.933.933 0 0 0 1.04-.93v-15.8c.01-.68-.55-1.24-1.24-1.24ZM21.372 11.99h-3.11c-.69 0-1.25.56-1.24 1.24v15.8c0 .56.48.99 1.04.93 5.03-.52 8.95-4.82 8.95-9.99v-2.35c0-3.11-2.53-5.63-5.64-5.63Z"/><path fill="#F9C23C" d="M21 15.45c0-.55-.45-1-1-1s-1 .45-1 1v3.02c0 .55.45 1 1 1s1-.45 1-1v-3.02ZM25 16.96c0-.55-.45-1-1-1s-.99.45-1 1v3.02c0 .55.45 1 1 1s1-.45 1-1v-3.02ZM7.982 15.96c.55 0 1 .45 1 1v3.02c0 .55-.45 1-1 1s-1-.45-1-1v-3.02c0-.55.45-1 1-1ZM13.062 15.45c0-.55-.45-1-1-1s-1 .45-1 1v3.02c0 .55.45 1 1 1s1-.45 1-1v-3.02Z"/></svg>
